svg/fluentui-system-icons/ic_fluent_dual_screen_vibrate_20_filled.svg

<svg width="20" height="20" viewBox="0 0 20 20" fill="none" xmlns="http://www.w3.org/2000/svg">
<path d="M10.4992 15H12.9992C14.1037 15 14.9992 14.1046 14.9992 13V7C14.9992 5.89543 14.1037 5 12.9992 5H10.4992V15ZM9.49916 5H6.99916C5.89459 5 4.99916 5.89543 4.99916 7V13C4.99916 14.1046 5.89459 15 6.99916 15H9.49916V5ZM11.9992 12.5C11.9992 12.2239 12.223 12 12.4992 12H12.9992C13.2753 12 13.4992 12.2239 13.4992 12.5C13.4992 12.7761 13.2753 13 12.9992 13H12.4992C12.223 13 11.9992 12.7761 11.9992 12.5ZM6.99916 12H7.49916C7.7753 12 7.99916 12.2239 7.99916 12.5C7.99916 12.7761 7.7753 13 7.49916 13H6.99916C6.72302 13 6.49916 12.7761 6.49916 12.5C6.49916 12.2239 6.72302 12 6.99916 12ZM1.87781 6.51493C2.1457 6.44795 2.41718 6.61082 2.48416 6.87872L2.89449 8.51982C2.98135 8.86721 2.94107 9.23421 2.78093 9.55449L2.16997 10.7764C2.09959 10.9172 2.09959 11.0828 2.16997 11.2236L2.94631 12.7764C3.0698 13.0234 2.96968 13.3237 2.72269 13.4472C2.47569 13.5707 2.17536 13.4706 2.05187 13.2236L1.27553 11.6708C1.0644 11.2485 1.06441 10.7515 1.27555 10.3292L1.8865 9.10728C1.93988 9.00052 1.95331 8.87819 1.92436 8.76239L1.51403 7.12128C1.44704 6.85339 1.60991 6.58192 1.87781 6.51493ZM18.4842 6.87872C18.4172 6.61082 18.1457 6.44795 17.8778 6.51493C17.6099 6.58192 17.447 6.85339 17.514 7.12128L17.9244 8.76239C17.9533 8.87819 17.9399 9.00052 17.8865 9.10728L17.2755 10.3292C17.0644 10.7515 17.0644 11.2485 17.2755 11.6708L18.0519 13.2236C18.1754 13.4706 18.4757 13.5707 18.7227 13.4472C18.9697 13.3237 19.0698 13.0234 18.9463 12.7764L18.17 11.2236C18.0996 11.0828 18.0996 10.9172 18.17 10.7764L18.7809 9.55449C18.9411 9.23421 18.9814 8.86721 18.8945 8.51982L18.4842 6.87872Z" fill="#212121"/>
</svg>

<svg xmlns="http://www.w3.org/2000/svg" width="20" height="20"><path d="M10.5 15H13a2 2 0 0 0 2-2V7a2 2 0 0 0-2-2h-2.5v10Zm-1-10H7a2 2 0 0 0-2 2v6a2 2 0 0 0 2 2h2.5V5Zm2.5 7.5a.5.5 0 0 1 .5-.5h.5a.5.5 0 0 1 0 1h-.5a.5.5 0 0 1-.5-.5ZM7 12h.5a.5.5 0 0 1 0 1H7a.5.5 0 0 1 0-1ZM1.877 6.515a.5.5 0 0 1 .606.364l.41 1.64a1.5 1.5 0 0 1-.113 1.035l-.611 1.222a.5.5 0 0 0 0 .448l.776 1.552a.5.5 0 1 1-.894.448l-.776-1.553a1.5 1.5 0 0 1 0-1.342l.61-1.222a.5.5 0 0 0 .038-.345l-.41-1.64a.5.5 0 0 1 .364-.607Zm16.606.364a.5.5 0 0 0-.97.242l.41 1.641a.5.5 0 0 1-.037.345l-.611 1.222a1.5 1.5 0 0 0 0 1.342l.776 1.553a.5.5 0 1 0 .894-.448l-.776-1.552a.5.5 0 0 1 0-.448l.61-1.222c.161-.32.201-.687.114-1.034l-.41-1.641Z"/></svg>
